X: 140
M:6/8
L:1/8
Q:160
K:G
|: g2 f e2 g|faf def|g2 f efg|f3 d2 z|{d}c2 B c2 d|e2 f g2 z|{f}g2 z A2 d|B3 G2:|

